icons/animal_spider.svg

<svg width="48" height="48" viewBox="0 0 48 48" fill="none" xmlns="http://www.w3.org/2000/svg">
<path fill-rule="evenodd" clip-rule="evenodd" d="M15.1961 6.01961C14.6546 5.9113 14.1277 6.26252 14.0194 6.80408L12.5194 14.3041C12.463 14.5863 12.5308 14.8791 12.7056 15.1076L18.7836 23.0557C18.6667 23.3974 18.5616 23.7516 18.4692 24.117C18.4324 24.0975 18.3941 24.0801 18.3542 24.065L11.9607 21.6432L7.71501 17.3011C7.3289 16.9062 6.69577 16.8991 6.30088 17.2852C5.906 17.6713 5.89888 18.3044 6.28499 18.6993L10.685 23.1993C10.7867 23.3033 10.9098 23.3838 11.0458 23.4354L17.6458 25.9354C17.8027 25.9948 17.9652 26.0122 18.1209 25.9931C18.0806 26.3227 18.05 26.6583 18.0297 26.9989L12.4889 26.5042C12.1453 26.4735 11.8101 26.6221 11.6021 26.8974L8.20213 31.3974C7.8692 31.838 7.95652 32.4651 8.39717 32.7981C8.83782 33.131 9.46493 33.0437 9.79787 32.603L12.8635 28.5456L17.9111 28.9962C17.951 28.9998 17.9905 29.001 18.0296 28.9999C18.0397 29.1686 18.0522 29.3361 18.0672 29.5023C17.8812 29.4896 17.6895 29.5287 17.5144 29.626L13.0144 32.126C12.8068 32.2413 12.647 32.4267 12.5637 32.6491L9.56367 40.6491C9.36975 41.1662 9.63176 41.7426 10.1489 41.9365C10.666 42.1304 11.2424 41.8684 11.4363 41.3513L14.3072 33.6957L18.3647 31.4415C19.2064 35.269 21.4118 38.0002 24 38.0002C26.5882 38.0002 28.7936 35.269 29.6353 31.4415L33.6928 33.6957L36.5637 41.3513C36.7576 41.8684 37.334 42.1304 37.8511 41.9365C38.3682 41.7426 38.6302 41.1662 38.4363 40.6491L35.4363 32.6491C35.353 32.4267 35.1932 32.2413 34.9856 32.126L30.4856 29.626C30.3105 29.5287 30.1188 29.4896 29.9328 29.5023C29.9478 29.3361 29.9603 29.1686 29.9704 28.9999C30.0095 29.001 30.049 28.9998 30.0889 28.9962L35.1365 28.5456L38.2021 32.603C38.5351 33.0437 39.1622 33.131 39.6028 32.7981C40.0435 32.4651 40.1308 31.838 39.7979 31.3974L36.3979 26.8974C36.1899 26.6221 35.8547 26.4735 35.5111 26.5042L29.9703 26.9989C29.95 26.6583 29.9194 26.3227 29.8791 25.9931C30.0348 26.0122 30.1973 25.9948 30.3542 25.9354L36.9542 23.4354C37.0902 23.3838 37.2133 23.3033 37.315 23.1993L41.715 18.6993C42.1011 18.3044 42.094 17.6713 41.6991 17.2852C41.3042 16.8991 40.6711 16.9062 40.285 17.3011L36.0393 21.6432L29.6458 24.065C29.6059 24.0801 29.5676 24.0975 29.5308 24.117C29.4384 23.7516 29.3333 23.3974 29.2164 23.0557L35.2944 15.1076C35.4692 14.8791 35.537 14.5863 35.4806 14.3041L33.9806 6.80408C33.8723 6.26252 33.3454 5.9113 32.8039 6.01961C32.2623 6.12792 31.9111 6.65475 32.0194 7.19631L33.4306 14.2524L28.2786 20.9896C27.9002 20.3482 27.4703 19.7914 27 19.338V15.5002C27 14.9479 26.5523 14.5002 26 14.5002C25.4477 14.5002 25 14.9479 25 15.5002V16.0002H23V15.5002C23 14.9479 22.5523 14.5002 22 14.5002C21.4477 14.5002 21 14.9479 21 15.5002V19.338C20.5297 19.7914 20.0998 20.3482 19.7214 20.9896L14.5694 14.2524L15.9806 7.19631C16.0889 6.65475 15.7377 6.12792 15.1961 6.01961ZM20.6591 23.7523C20.9126 23.5306 21.0292 23.2047 20.9939 22.8882C21.3907 21.9903 21.8752 21.2723 22.3881 20.7778L23 20.1879V18.0002H25V20.1879L25.6119 20.7778C26.1248 21.2723 26.6093 21.9903 27.0061 22.8882C26.9708 23.2047 27.0875 23.5306 27.3409 23.7523C27.7463 24.954 28 26.395 28 28.0002C28 30.4615 27.3973 32.5929 26.5277 34.0423C25.6341 35.5315 24.6783 36.0002 24 36.0002C23.3217 36.0002 22.3659 35.5315 21.4723 34.0423C20.6027 32.5929 20 30.4615 20 28.0002C20 26.395 20.2537 24.954 20.6591 23.7523Z" fill="black"/>
</svg>

<svg
  xmlns="http://www.w3.org/2000/svg"
  width="24"
  height="24"
  viewBox="0 0 24 24"
  fill="none"
  stroke="currentColor"
  stroke-width="2"
  stroke-linecap="round"
  stroke-linejoin="round"
>
  <path
    fill-rule="evenodd"
    d="M15.196 6.02a1 1 0 0 0-1.177.784l-1.5 7.5a1 1 0 0 0 .187.804l6.078 7.948q-.175.513-.315 1.061a1 1 0 0 0-.115-.052l-6.393-2.422-4.246-4.342a1 1 0 0 0-1.43 1.398l4.4 4.5c.102.104.225.185.36.236l6.6 2.5c.158.06.32.077.476.058q-.06.495-.091 1.006l-5.541-.495a1 1 0 0 0-.887.393l-3.4 4.5a1 1 0 1 0 1.596 1.206l3.066-4.057 5.047.45q.06.006.119.004.015.253.037.502a1 1 0 0 0-.553.124l-4.5 2.5a1 1 0 0 0-.45.523l-3 8a1 1 0 1 0 1.872.702l2.871-7.655 4.058-2.254C19.206 35.269 21.412 38 24 38s4.794-2.731 5.635-6.558l4.058 2.254 2.87 7.655a1 1 0 0 0 1.873-.702l-3-8a1 1 0 0 0-.45-.523l-4.5-2.5a1 1 0 0 0-.553-.124q.022-.249.037-.502.06.002.119-.004l5.047-.45 3.066 4.057a1 1 0 0 0 1.596-1.206l-3.4-4.5a1 1 0 0 0-.887-.393l-5.54.495q-.032-.51-.092-1.006c.156.02.318.002.475-.058l6.6-2.5c.136-.051.26-.132.361-.236l4.4-4.5a1 1 0 1 0-1.43-1.398l-4.246 4.342-6.393 2.422q-.06.022-.115.052-.14-.549-.315-1.061l6.078-7.948a1 1 0 0 0 .187-.804l-1.5-7.5a1 1 0 0 0-1.962.392l1.412 7.056-5.152 6.738A7.8 7.8 0 0 0 27 19.338V15.5a1 1 0 1 0-2 0v.5h-2v-.5a1 1 0 1 0-2 0v3.838c-.47.453-.9 1.01-1.279 1.652l-5.152-6.738 1.412-7.056a1 1 0 0 0-.785-1.176m5.463 17.732a1 1 0 0 0 .335-.864c.397-.898.881-1.616 1.394-2.11l.612-.59V18h2v2.188l.612.59c.513.494.997 1.212 1.394 2.11a1 1 0 0 0 .335.864C27.746 24.954 28 26.395 28 28c0 2.462-.603 4.593-1.472 6.042C25.634 35.532 24.678 36 24 36s-1.634-.468-2.528-1.958C20.602 32.592 20 30.462 20 28c0-1.605.254-3.046.66-4.248"
    clip-rule="evenodd"
  />
</svg>
